Numix-Light-GalliumOS/scalable/actions/image-red-eye-symbolic.svg

<svg xmlns="http://www.w3.org/2000/svg" viewBox="0 0 16 16">
<defs>
<clipPath>
<rect width="14" x="21" y="281" height="11" style="fill:none;stroke:#fff;stroke-linejoin:round;stroke-linecap:round;color:#353535;stroke-width:2"/>
</clipPath>
<clipPath>
<rect width="14" x="21" y="281" height="11" style="fill:none;stroke:#fff;stroke-linejoin:round;stroke-linecap:round;color:#353535;stroke-width:2"/>
</clipPath>
</defs>
<path style="fill:#dc322f;color:#353535" d="M 8,4 C 5.790861,4 4,5.790861 4,8 4,8.356555 4.0687173,8.7022582 4.15625,9.03125 l 4.875,-4.875 C 8.7022582,4.0687173 8.356555,4 8,4 z m 3.84375,2.96875 -4.875,4.875 C 7.2977418,11.931283 7.643445,12 8,12 c 2.209139,0 4,-1.790861 4,-4 0,-0.356555 -0.06872,-0.7022582 -0.15625,-1.03125 z"/>
<path style="fill:#353535;color:#000" d="M 13.65625,0.9375 0.9375,13.65625 2.34375,15.0625 15.0625,2.34375 13.65625,0.9375 z M 8,2 C 4.6862915,2 2,4.6862915 2,8 2,8.9269934 2.2183793,9.8100295 2.59375,10.59375 l 1.5625,-1.5625 C 4.0687173,8.7022582 4,8.356555 4,8 4,5.790861 5.790861,4 8,4 8.356555,4 8.7022582,4.0687173 9.03125,4.15625 l 1.5625,-1.5625 C 9.8100295,2.2183793 8.9269934,2 8,2 z m 5.40625,3.40625 -1.5625,1.5625 C 11.931283,7.2977418 12,7.643445 12,8 c 0,2.209139 -1.790861,4 -4,4 -0.356555,0 -0.7022582,-0.06872 -1.03125,-0.15625 l -1.5625,1.5625 C 6.1899706,13.781621 7.0730065,14 8,14 11.313708,14 14,11.313708 14,8 14,7.0730065 13.781621,6.1899706 13.40625,5.40625 z"/>
</svg>

<svg xmlns="http://www.w3.org/2000/svg" viewBox="0 0 16 16">
 <path d="m 8 4 c -2.209 0 -4 1.791 -4 4 0 0.357 0.069 0.702 0.156 1.031 l 4.875 -4.875 c -0.329 -0.088 -0.675 -0.156 -1.031 -0.156 z m 3.844 2.969 -4.875 4.875 c 0.329 0.088 0.675 0.156 1.031 0.156 c 2.209 0 4 -1.791 4 -4 0 -0.357 -0.069 -0.702 -0.156 -1.031 z" style="fill:#ef555c;fill-opacity:1;color:#353535"/>
 <path d="m 13.656 0.938 -12.719 12.719 1.406 1.406 12.719 -12.719 -1.406 -1.406 z m -5.656 1.063 c -3.314 0 -6 2.686 -6 6 0 0.927 0.218 1.81 0.594 2.594 l 1.563 -1.563 c -0.088 -0.329 -0.156 -0.675 -0.156 -1.031 0 -2.209 1.791 -4 4 -4 0.357 0 0.702 0.069 1.031 0.156 l 1.563 -1.563 c -0.784 -0.375 -1.667 -0.594 -2.594 -0.594 z m 5.406 3.406 -1.563 1.563 c 0.088 0.329 0.156 0.675 0.156 1.031 c 0 2.209 -1.791 4 -4 4 -0.357 0 -0.702 -0.069 -1.031 -0.156 l -1.563 1.563 c 0.784 0.375 1.667 0.594 2.594 0.594 3.314 0 6 -2.686 6 -6 0 -0.927 -0.218 -1.81 -0.594 -2.594 z" style="fill:#353535;color:#000"/>
</svg>
